svgs/sharp-solid/keynote.svg

<svg xmlns="http://www.w3.org/2000/svg" viewBox="0 0 512 512"><!--! Font Awesome Pro 6.4.0 by @fontawesome - https://fontawesome.com License - https://fontawesome.com/license (Commercial License) Copyright 2023 Fonticons, Inc. --><path d="M304 0H208V24H184c-48.6 0-88 39.4-88 88v48H64L0 288v64H512V288L448 160H144V112c0-22.1 17.9-40 40-40h24V96h96c26.5 0 48-21.5 48-48s-21.5-48-48-48zM224 448H160 128v64h32 96 96 32V448H352 288V384H224v64z"/></svg>

<svg xmlns="http://www.w3.org/2000/svg" viewBox="0 0 512 512"><!--! Font Awesome Pro 6.6.0 by @fontawesome - https://fontawesome.com License - https://fontawesome.com/license (Commercial License) Copyright 2024 Fonticons, Inc. --><path d="M304 0L208 0l0 24-24 0c-48.6 0-88 39.4-88 88l0 48-32 0L0 288l0 64 512 0 0-64L448 160l-304 0 0-48c0-22.1 17.9-40 40-40l24 0 0 24 96 0c26.5 0 48-21.5 48-48s-21.5-48-48-48zM224 448l-64 0-32 0 0 64 32 0 96 0 96 0 32 0 0-64-32 0-64 0 0-64-64 0 0 64z"/></svg>
